X:353
T: Treue Liebe (85), S. 228
N: T0242
O: Luxemburg
S: Singendes Volk, Esch-Alzette 1937 posth.]
N: Heffingen, fff Susanna Berchem-Petry, 1906
R: Liebeslieder]
M: 2/4
L: 1/8
K: Bb
 | c2dc | BGF2 |
d2ed | cdc2 |
F2GF | Fed2 |
c2GA | B2z2

@@@ Tune index: 8407
